assets/img/logo.svg

<svg width="40" height="40" xmlns="http://www.w3.org/2000/svg" fill="none">

 <g>
  <title>background</title>
  <rect fill="none" id="canvas_background" height="780" width="1449" y="-1" x="-1"/>
 </g>
 <g>
  <title>Layer 1</title>
  <path id="svg_1" fill="#006688" d="m10,0c5.5228,0 10,4.47715 10,10l0,-10l10,0c5.5228,0 10,4.47715 10,10c0,5.5228 -4.4772,10 -10,10c5.5228,0 10,4.4772 10,10c0,2.7423 -1.1039,5.2268 -2.8915,7.0334l-0.0374,0.0377l-0.0332,0.033c-1.807,1.7902 -4.2933,2.8959 -7.0379,2.8959c-2.7259,0 -5.1971,-1.0907 -7.001,-2.8595c-0.0234,-0.023 -0.0468,-0.0462 -0.0701,-0.0694c-0.0219,-0.0219 -0.0437,-0.0439 -0.0654,-0.066c-1.7711,-1.8042 -2.8635,-4.2771 -2.8635,-7.0051c0,5.5228 -4.4772,10 -10,10c-5.52285,0 -10,-4.4772 -10,-10l0,-10l10,0c-5.52285,0 -10,-4.4772 -10,-10c0,-5.52285 4.47715,-10 10,-10zm8,10c0,4.4183 -3.5817,8 -8,8l0,-16c4.4183,0 8,3.58172 8,8zm20,20c0,-4.4183 -3.5817,-8 -8,-8c-4.4183,0 -8,3.5817 -8,8l16,0zm-36,-8l0,8c0,4.4183 3.58172,8 8,8c4.4183,0 8,-3.5817 8,-8l0,-8l-16,0zm20,-4l0,-16l8,0c4.4183,0 8,3.58172 8,8c0,4.4183 -3.5817,8 -8,8l-8,0z" clip-rule="evenodd" fill-rule="evenodd" class="ccustom"/>
 </g>
</svg>

<svg id="logo-85" width="40" height="40" viewBox="0 0 40 40" fill="none" xmlns="http://www.w3.org/2000/svg"><path class="ccustom" fill-rule="evenodd" clip-rule="evenodd" d="M10 0C15.5228 0 20 4.47715 20 10V0H30C35.5228 0 40 4.47715 40 10C40 15.5228 35.5228 20 30 20C35.5228 20 40 24.4772 40 30C40 32.7423 38.8961 35.2268 37.1085 37.0334L37.0711 37.0711L37.0379 37.1041C35.2309 38.8943 32.7446 40 30 40C27.2741 40 24.8029 38.9093 22.999 37.1405C22.9756 37.1175 22.9522 37.0943 22.9289 37.0711C22.907 37.0492 22.8852 37.0272 22.8635 37.0051C21.0924 35.2009 20 32.728 20 30C20 35.5228 15.5228 40 10 40C4.47715 40 0 35.5228 0 30V20H10C4.47715 20 0 15.5228 0 10C0 4.47715 4.47715 0 10 0ZM18 10C18 14.4183 14.4183 18 10 18V2C14.4183 2 18 5.58172 18 10ZM38 30C38 25.5817 34.4183 22 30 22C25.5817 22 22 25.5817 22 30H38ZM2 22V30C2 34.4183 5.58172 38 10 38C14.4183 38 18 34.4183 18 30V22H2ZM22 18V2L30 2C34.4183 2 38 5.58172 38 10C38 14.4183 34.4183 18 30 18H22Z" fill="#5417D7"></path></svg>
